figures/euler_q_log.svg

<?xml version="1.0" encoding="UTF-8" standalone="no"?>
<!-- This file was generated by dvisvgm 3.0.3 -->

<svg
   xmlns:dc="http://purl.org/dc/elements/1.1/"
   xmlns:cc="http://creativecommons.org/ns#"
   xmlns:rdf="http://www.w3.org/1999/02/22-rdf-syntax-ns#"
   xmlns:svg="http://www.w3.org/2000/svg"
   xmlns="http://www.w3.org/2000/svg"
   xmlns:xlink="http://www.w3.org/1999/xlink"
   xmlns:sodipodi="http://sodipodi.sourceforge.net/DTD/sodipodi-0.dtd"
   xmlns:inkscape="http://www.inkscape.org/namespaces/inkscape"
   version="1.1"
   width="133.92166pt"
   height="17.975664pt"
   viewBox="191.11146 76.074687 133.92167 17.975663"
   id="svg50"
   sodipodi:docname="euler_q_log.svg"
   inkscape:version="0.92.4 (5da689c313, 2019-01-14)">
  <metadata
     id="metadata54">
    <rdf:RDF>
      <cc:Work
         rdf:about="">
        <dc:format>image/svg+xml</dc:format>
        <dc:type
           rdf:resource="http://purl.org/dc/dcmitype/StillImage" />
        <dc:title></dc:title>
      </cc:Work>
    </rdf:RDF>
  </metadata>
  <sodipodi:namedview
     pagecolor="#ffffff"
     bordercolor="#666666"
     borderopacity="1"
     objecttolerance="10"
     gridtolerance="10"
     guidetolerance="10"
     inkscape:pageopacity="0"
     inkscape:pageshadow="2"
     inkscape:window-width="1920"
     inkscape:window-height="1017"
     id="namedview52"
     showgrid="false"
     fit-margin-top="0"
     fit-margin-left="0"
     fit-margin-right="0"
     fit-margin-bottom="0"
     inkscape:zoom="4.4457532"
     inkscape:cx="59.58425"
     inkscape:cy="11.892859"
     inkscape:window-x="-8"
     inkscape:window-y="-8"
     inkscape:window-maximized="1"
     inkscape:current-layer="svg50" />
  <defs
     id="defs13">
    <path
       id="g0-0"
       d="m 6.56538,-2.291407 c 0.169365,0 0.348692,0 0.348692,-0.199253 0,-0.199253 -0.179327,-0.199253 -0.348692,-0.199253 H 1.175592 c -0.169365,0 -0.348693,0 -0.348693,0.199253 0,0.199253 0.179328,0.199253 0.348693,0.199253 z"
       inkscape:connector-curvature="0" />
    <path
       id="g4-50"
       d="M 3.521793,-1.26924 H 3.284682 c -0.020921,0.153424 -0.09066,0.564881 -0.18132,0.63462 -0.05579,0.041843 -0.592777,0.041843 -0.690411,0.041843 H 1.129763 c 0.732254,-0.648568 0.976339,-0.843836 1.39477,-1.171607 0.516065,-0.411457 0.99726,-0.843835 0.99726,-1.506351 0,-0.843835 -0.739228,-1.3599 -1.63188,-1.3599 -0.864757,0 -1.450561,0.606725 -1.450561,1.248319 0,0.355666 0.299876,0.390535 0.369614,0.390535 0.167373,0 0.369614,-0.118555 0.369614,-0.369614 0,-0.125529 -0.048817,-0.369614 -0.411457,-0.369614 0.21619,-0.495143 0.690411,-0.648568 1.018182,-0.648568 0.697385,0 1.060025,0.543961 1.060025,1.108842 0,0.606725 -0.432379,1.087921 -0.655542,1.338979 L 0.509091,-0.27198 C 0.439352,-0.209215 0.439352,-0.195268 0.439352,0 h 2.873226 z"
       inkscape:connector-curvature="0" />
    <path
       id="g1-49"
       d="M 4.030884,-1.910834 C 3.66127,-2.343213 3.549689,-2.461768 3.284682,-2.650062 2.859278,-2.956912 2.412951,-3.075467 2.02939,-3.075467 c -0.864757,0 -1.492404,0.739228 -1.492404,1.57609 0,0.81594 0.599751,1.569115 1.471482,1.569115 0.969365,0 1.645828,-0.795018 1.896887,-1.164632 0.369614,0.432378 0.481195,0.550934 0.746202,0.739228 0.425404,0.306849 0.871731,0.425404 1.255292,0.425404 0.864757,0 1.492404,-0.739227 1.492404,-1.576089 0,-0.81594 -0.599751,-1.569116 -1.471482,-1.569116 -0.969365,0 -1.645828,0.795019 -1.896887,1.164633 z m 0.223163,0.258032 c 0.278954,-0.4533 0.885679,-1.157659 1.736488,-1.157659 0.718307,0 1.21345,0.63462 1.21345,1.30411 0,0.66949 -0.54396,1.192528 -1.185554,1.192528 -0.648568,0 -1.094894,-0.530013 -1.764384,-1.338979 z m -0.571855,0.299875 c -0.278954,0.453301 -0.885679,1.157659 -1.736488,1.157659 -0.718307,0 -1.21345,-0.63462 -1.21345,-1.304109 0,-0.669489 0.54396,-1.192528 1.185554,-1.192528 0.648568,0 1.094894,0.530012 1.764384,1.338978 z"
       inkscape:connector-curvature="0" />
    <path
       id="g3-40"
       d="m 3.297634,2.391034 c 0,-0.029888 0,-0.049814 -0.169365,-0.219178 -1.24533,-1.255293 -1.564135,-3.138232 -1.564135,-4.662516 0,-1.733499 0.378581,-3.466999 1.603986,-4.712329 0.129514,-0.119551 0.129514,-0.139477 0.129514,-0.169365 0,-0.069738 -0.039851,-0.099626 -0.099627,-0.099626 -0.099626,0 -0.996264,0.677459 -1.584059,1.942715 -0.508095,1.09589 -0.627647,2.201743 -0.627647,3.038605 0,0.777086 0.109589,1.982565 0.657535,3.108344 0.597758,1.225404 1.454545,1.872976 1.554171,1.872976 0.059776,0 0.099627,-0.029888 0.099627,-0.099626 z"
       inkscape:connector-curvature="0" />
    <path
       id="g3-41"
       d="m 2.879203,-2.49066 c 0,-0.777086 -0.109589,-1.982565 -0.657534,-3.108344 C 1.62391,-6.824408 0.767123,-7.47198 0.667497,-7.47198 c -0.059776,0 -0.099627,0.03985 -0.099627,0.099626 0,0.029888 0,0.049814 0.189291,0.229141 0.976338,0.986301 1.544209,2.570361 1.544209,4.652553 0,1.703611 -0.368618,3.457036 -1.603985,4.712329 C 0.56787,2.34122 0.56787,2.361146 0.56787,2.391034 c 0,0.059775 0.039851,0.099626 0.099627,0.099626 0.099626,0 0.996264,-0.67746 1.58406,-1.942715 0.508094,-1.09589 0.627646,-2.201743 0.627646,-3.038605 z"
       inkscape:connector-curvature="0" />
    <path
       id="g3-49"
       d="m 2.929016,-6.37609 c 0,-0.239103 0,-0.259028 -0.229141,-0.259028 -0.617683,0.637609 -1.494396,0.637609 -1.8132,0.637609 v 0.308842 c 0.199253,0 0.787049,0 1.305106,-0.259029 v 5.160647 c 0,0.358655 -0.029888,0.478207 -0.926526,0.478207 H 0.946451 V 0 c 0.348692,-0.029888 1.215442,-0.029888 1.613948,-0.029888 0.398506,0 1.265255,0 1.613947,0.029888 V -0.308842 H 3.855542 c -0.896638,0 -0.926526,-0.109589 -0.926526,-0.478207 z"
       inkscape:connector-curvature="0" />
    <path
       id="g3-59"
       d="m 1.912827,-3.765878 c 0,-0.288917 -0.239103,-0.52802 -0.52802,-0.52802 -0.288917,0 -0.52802,0.239103 -0.52802,0.52802 0,0.288917 0.239103,0.52802 0.52802,0.52802 0.288917,0 0.52802,-0.239103 0.52802,-0.52802 z m -0.18929,3.656289 c 0,0.278954 0,1.05604 -0.637609,1.793275 C 1.016189,1.763387 1.016189,1.783313 1.016189,1.8132 c 0,0.069739 0.049813,0.10959 0.099627,0.10959 0.109589,0 0.826899,-0.797012 0.826899,-1.952678 0,-0.288916 -0.019925,-1.026152 -0.557908,-1.026152 -0.348692,0 -0.52802,0.268991 -0.52802,0.52802 C 0.856787,-0.268991 1.026152,0 1.384807,0 1.43462,0 1.454545,0 1.464508,-0.009963 1.534247,-0.019925 1.643836,-0.039851 1.723537,-0.109589 Z"
       inkscape:connector-curvature="0" />
    <path
       id="g3-103"
       d="m 2.211706,-1.713574 c -0.86675,0 -0.86675,-0.996264 -0.86675,-1.225405 0,-0.268991 0.00996,-0.587796 0.159403,-0.836862 0.079701,-0.119551 0.308841,-0.398505 0.707347,-0.398505 0.86675,0 0.86675,0.996264 0.86675,1.225405 0,0.268991 -0.00996,0.587795 -0.159402,0.836861 -0.079702,0.119552 -0.308842,0.398506 -0.707348,0.398506 z M 1.05604,-1.325031 c 0,-0.039851 0,-0.268991 0.169365,-0.468244 0.388543,0.278954 0.797011,0.308842 0.986301,0.308842 0.926526,0 1.613948,-0.687423 1.613948,-1.454546 0,-0.368618 -0.159402,-0.737235 -0.408468,-0.966376 0.358655,-0.33873 0.71731,-0.388543 0.896637,-0.388543 0.019925,0 0.069739,0 0.099627,0.00996 -0.109589,0.03985 -0.159403,0.149439 -0.159403,0.268991 0,0.169365 0.129515,0.288917 0.288917,0.288917 0.099626,0 0.288916,-0.069739 0.288916,-0.29888 0,-0.169364 -0.119551,-0.488169 -0.508094,-0.488169 -0.199253,0 -0.637609,0.059776 -1.05604,0.468244 -0.418431,-0.328767 -0.836862,-0.358655 -1.05604,-0.358655 -0.926525,0 -1.613948,0.687422 -1.613948,1.454546 0,0.438356 0.219178,0.816936 0.468244,1.026151 -0.129514,0.14944 -0.308841,0.478207 -0.308841,0.8269 0,0.308841 0.129514,0.687422 0.438356,0.886675 -0.597759,0.169364 -0.916563,0.597758 -0.916563,0.996264 0,0.71731 0.986301,1.265255 2.201743,1.265255 1.175592,0 2.211706,-0.508095 2.211706,-1.285181 0,-0.348692 -0.139476,-0.856787 -0.647571,-1.135741 -0.52802,-0.278954 -1.105853,-0.278954 -1.713574,-0.278954 -0.249066,0 -0.67746,0 -0.747198,-0.009962 C 1.265255,-0.697385 1.05604,-1.006227 1.05604,-1.325031 Z m 1.43462,3.148194 c -1.006227,0 -1.693649,-0.508095 -1.693649,-1.036114 0,-0.458282 0.378581,-0.8269 0.816937,-0.856787 h 0.587795 c 0.856788,0 1.972603,0 1.972603,0.856787 0,0.537982 -0.707347,1.036114 -1.683686,1.036114 z"
       inkscape:connector-curvature="0" />
    <path
       id="g3-108"
       d="m 1.763387,-6.914072 -1.43462,0.109589 v 0.308842 c 0.697385,0 0.777086,0.069738 0.777086,0.557908 v 5.180572 c 0,0.448319 -0.109589,0.448319 -0.777086,0.448319 V 0 c 0.328767,-0.009963 0.856787,-0.029888 1.105853,-0.029888 0.249066,0 0.737236,0.019925 1.105853,0.029888 v -0.308842 c -0.667497,0 -0.777086,0 -0.777086,-0.448319 z"
       inkscape:connector-curvature="0" />
    <path
       id="g3-111"
       d="m 4.692403,-2.132005 c 0,-1.275218 -0.996264,-2.331258 -2.201743,-2.331258 -1.24533,0 -2.211706,1.085928 -2.211706,2.331258 0,1.285181 1.036114,2.241594 2.201743,2.241594 1.20548,0 2.211706,-0.976339 2.211706,-2.241594 z M 2.49066,-0.139477 c -0.428393,0 -0.86675,-0.209215 -1.135741,-0.667497 -0.249066,-0.438356 -0.249066,-1.046077 -0.249066,-1.404732 0,-0.388543 0,-0.926526 0.239103,-1.364882 0.268992,-0.458281 0.737236,-0.667497 1.135741,-0.667497 0.438357,0 0.86675,0.219178 1.125779,0.647572 0.259029,0.428394 0.259028,1.006227 0.259028,1.384807 0,0.358655 0,0.896638 -0.219178,1.334994 -0.219178,0.448318 -0.657534,0.737235 -1.155666,0.737235 z"
       inkscape:connector-curvature="0" />
    <path
       id="g2-113"
       d="m 4.503113,-4.293898 c 0,-0.03985 -0.029888,-0.099626 -0.099626,-0.099626 -0.109589,0 -0.508095,0.398505 -0.67746,0.687422 -0.219178,-0.537983 -0.607721,-0.697385 -0.926525,-0.697385 -1.175592,0 -2.400996,1.474471 -2.400996,2.919054 0,0.976338 0.587795,1.594022 1.315068,1.594022 0.428394,0 0.816937,-0.239103 1.175592,-0.597758 C 2.799502,-0.139477 2.470735,1.205479 2.440847,1.295143 2.361146,1.574097 2.281445,1.613948 1.723537,1.62391 c -0.129515,0 -0.229141,0 -0.229141,0.199253 0,0.00996 0,0.109589 0.129514,0.109589 0.318805,0 0.667497,-0.029888 0.996264,-0.029888 0.33873,0 0.697385,0.029888 1.026152,0.029888 0.049813,0 0.179328,0 0.179328,-0.199253 0,-0.109589 -0.099627,-0.109589 -0.259029,-0.109589 -0.478207,0 -0.478207,-0.069738 -0.478207,-0.159402 0,-0.069738 0.019926,-0.129514 0.039851,-0.219178 z m -2.759651,4.184309 c -0.597758,0 -0.637609,-0.767123 -0.637609,-0.936488 0,-0.478207 0.288917,-1.564135 0.458281,-1.982566 0.308842,-0.737235 0.8269,-1.155666 1.235368,-1.155666 0.647571,0 0.787048,0.806974 0.787048,0.876712 0,0.059776 -0.547945,2.241595 -0.577833,2.281445 -0.149439,0.278954 -0.707347,0.916563 -1.265255,0.916563 z"
       inkscape:connector-curvature="0" />
  </defs>
  <g
     id="page1"
     transform="matrix(1.6,0,0,1.6,-115.19289,-45.426612)">
    <use
       x="191.11145"
       y="84.682442"
       xlink:href="#g3-108"
       id="use15"
       width="100%"
       height="100%" />
    <use
       x="193.87886"
       y="84.682442"
       xlink:href="#g3-111"
       id="use17"
       width="100%"
       height="100%" />
    <use
       x="198.8602"
       y="84.682442"
       xlink:href="#g3-103"
       id="use19"
       width="100%"
       height="100%" />
    <use
       x="203.97989"
       y="84.682442"
       xlink:href="#g3-40"
       id="use21"
       width="100%"
       height="100%" />
    <use
       x="207.85426"
       y="84.682442"
       xlink:href="#g3-40"
       id="use23"
       width="100%"
       height="100%" />
    <use
       x="211.72864"
       y="84.682442"
       xlink:href="#g2-113"
       id="use25"
       width="100%"
       height="100%" />
    <use
       x="216.53354"
       y="84.682442"
       xlink:href="#g3-59"
       id="use27"
       width="100%"
       height="100%" />
    <use
       x="220.96135"
       y="84.682442"
       xlink:href="#g2-113"
       id="use29"
       width="100%"
       height="100%" />
    <use
       x="225.76625"
       y="84.682442"
       xlink:href="#g3-41"
       id="use31"
       width="100%"
       height="100%" />
    <use
       x="229.64062"
       y="86.176819"
       xlink:href="#g1-49"
       id="use33"
       width="100%"
       height="100%" />
    <use
       x="238.08121"
       y="84.682442"
       xlink:href="#g3-41"
       id="use35"
       width="100%"
       height="100%" />
    <use
       x="241.95558"
       y="84.682442"
       xlink:href="#g3-40"
       id="use37"
       width="100%"
       height="100%" />
    <use
       x="245.82996"
       y="84.682442"
       xlink:href="#g3-49"
       id="use39"
       width="100%"
       height="100%" />
    <use
       x="253.02516"
       y="84.682442"
       xlink:href="#g0-0"
       id="use41"
       width="100%"
       height="100%" />
    <use
       x="262.98779"
       y="84.682442"
       xlink:href="#g2-113"
       id="use43"
       width="100%"
       height="100%" />
    <use
       x="267.79269"
       y="80.568947"
       xlink:href="#g4-50"
       id="use45"
       width="100%"
       height="100%" />
    <use
       x="272.26205"
       y="84.682442"
       xlink:href="#g3-41"
       id="use47"
       width="100%"
       height="100%" />
  </g>
</svg>

<?xml version='1.0' encoding='UTF-8'?>
<!-- This file was generated by dvisvgm 3.0.3 -->
<svg version='1.1' xmlns='http://www.w3.org/2000/svg' xmlns:xlink='http://www.w3.org/1999/xlink' width='85.024966pt' height='11.098414pt' viewBox='191.111457 76.074687 85.024966 11.098414'>
<defs>
<path id='g0-0' d='M6.56538-2.291407C6.734745-2.291407 6.914072-2.291407 6.914072-2.49066S6.734745-2.689913 6.56538-2.689913H1.175592C1.006227-2.689913 .826899-2.689913 .826899-2.49066S1.006227-2.291407 1.175592-2.291407H6.56538Z'/>
<path id='g4-50' d='M3.521793-1.26924H3.284682C3.263761-1.115816 3.194022-.704359 3.103362-.63462C3.047572-.592777 2.510585-.592777 2.412951-.592777H1.129763C1.862017-1.241345 2.106102-1.436613 2.524533-1.764384C3.040598-2.175841 3.521793-2.608219 3.521793-3.270735C3.521793-4.11457 2.782565-4.630635 1.889913-4.630635C1.025156-4.630635 .439352-4.02391 .439352-3.382316C.439352-3.02665 .739228-2.991781 .808966-2.991781C.976339-2.991781 1.17858-3.110336 1.17858-3.361395C1.17858-3.486924 1.129763-3.731009 .767123-3.731009C.983313-4.226152 1.457534-4.379577 1.785305-4.379577C2.48269-4.379577 2.84533-3.835616 2.84533-3.270735C2.84533-2.66401 2.412951-2.182814 2.189788-1.931756L.509091-.27198C.439352-.209215 .439352-.195268 .439352 0H3.312578L3.521793-1.26924Z'/>
<path id='g1-49' d='M4.030884-1.910834C3.66127-2.343213 3.549689-2.461768 3.284682-2.650062C2.859278-2.956912 2.412951-3.075467 2.02939-3.075467C1.164633-3.075467 .536986-2.336239 .536986-1.499377C.536986-.683437 1.136737 .069738 2.008468 .069738C2.977833 .069738 3.654296-.72528 3.905355-1.094894C4.274969-.662516 4.38655-.54396 4.651557-.355666C5.076961-.048817 5.523288 .069738 5.906849 .069738C6.771606 .069738 7.399253-.669489 7.399253-1.506351C7.399253-2.322291 6.799502-3.075467 5.927771-3.075467C4.958406-3.075467 4.281943-2.280448 4.030884-1.910834ZM4.254047-1.652802C4.533001-2.106102 5.139726-2.810461 5.990535-2.810461C6.708842-2.810461 7.203985-2.175841 7.203985-1.506351S6.660025-.313823 6.018431-.313823C5.369863-.313823 4.923537-.843836 4.254047-1.652802ZM3.682192-1.352927C3.403238-.899626 2.796513-.195268 1.945704-.195268C1.227397-.195268 .732254-.829888 .732254-1.499377S1.276214-2.691905 1.917808-2.691905C2.566376-2.691905 3.012702-2.161893 3.682192-1.352927Z'/>
<path id='g3-40' d='M3.297634 2.391034C3.297634 2.361146 3.297634 2.34122 3.128269 2.171856C1.882939 .916563 1.564134-.966376 1.564134-2.49066C1.564134-4.224159 1.942715-5.957659 3.16812-7.202989C3.297634-7.32254 3.297634-7.342466 3.297634-7.372354C3.297634-7.442092 3.257783-7.47198 3.198007-7.47198C3.098381-7.47198 2.201743-6.794521 1.613948-5.529265C1.105853-4.433375 .986301-3.327522 .986301-2.49066C.986301-1.713574 1.09589-.508095 1.643836 .617684C2.241594 1.843088 3.098381 2.49066 3.198007 2.49066C3.257783 2.49066 3.297634 2.460772 3.297634 2.391034Z'/>
<path id='g3-41' d='M2.879203-2.49066C2.879203-3.267746 2.769614-4.473225 2.221669-5.599004C1.62391-6.824408 .767123-7.47198 .667497-7.47198C.607721-7.47198 .56787-7.43213 .56787-7.372354C.56787-7.342466 .56787-7.32254 .757161-7.143213C1.733499-6.156912 2.30137-4.572852 2.30137-2.49066C2.30137-.787049 1.932752 .966376 .697385 2.221669C.56787 2.34122 .56787 2.361146 .56787 2.391034C.56787 2.450809 .607721 2.49066 .667497 2.49066C.767123 2.49066 1.663761 1.8132 2.251557 .547945C2.759651-.547945 2.879203-1.653798 2.879203-2.49066Z'/>
<path id='g3-49' d='M2.929016-6.37609C2.929016-6.615193 2.929016-6.635118 2.699875-6.635118C2.082192-5.997509 1.205479-5.997509 .886675-5.997509V-5.688667C1.085928-5.688667 1.673724-5.688667 2.191781-5.947696V-.787049C2.191781-.428394 2.161893-.308842 1.265255-.308842H.946451V0C1.295143-.029888 2.161893-.029888 2.560399-.029888S3.825654-.029888 4.174346 0V-.308842H3.855542C2.958904-.308842 2.929016-.418431 2.929016-.787049V-6.37609Z'/>
<path id='g3-59' d='M1.912827-3.765878C1.912827-4.054795 1.673724-4.293898 1.384807-4.293898S.856787-4.054795 .856787-3.765878S1.09589-3.237858 1.384807-3.237858S1.912827-3.476961 1.912827-3.765878ZM1.723537-.109589C1.723537 .169365 1.723537 .946451 1.085928 1.683686C1.016189 1.763387 1.016189 1.783313 1.016189 1.8132C1.016189 1.882939 1.066002 1.92279 1.115816 1.92279C1.225405 1.92279 1.942715 1.125778 1.942715-.029888C1.942715-.318804 1.92279-1.05604 1.384807-1.05604C1.036115-1.05604 .856787-.787049 .856787-.52802S1.026152 0 1.384807 0C1.43462 0 1.454545 0 1.464508-.009963C1.534247-.019925 1.643836-.039851 1.723537-.109589Z'/>
<path id='g3-103' d='M2.211706-1.713574C1.344956-1.713574 1.344956-2.709838 1.344956-2.938979C1.344956-3.20797 1.354919-3.526775 1.504359-3.775841C1.58406-3.895392 1.8132-4.174346 2.211706-4.174346C3.078456-4.174346 3.078456-3.178082 3.078456-2.948941C3.078456-2.67995 3.068493-2.361146 2.919054-2.11208C2.839352-1.992528 2.610212-1.713574 2.211706-1.713574ZM1.05604-1.325031C1.05604-1.364882 1.05604-1.594022 1.225405-1.793275C1.613948-1.514321 2.022416-1.484433 2.211706-1.484433C3.138232-1.484433 3.825654-2.171856 3.825654-2.938979C3.825654-3.307597 3.666252-3.676214 3.417186-3.905355C3.775841-4.244085 4.134496-4.293898 4.313823-4.293898C4.333748-4.293898 4.383562-4.293898 4.41345-4.283935C4.303861-4.244085 4.254047-4.134496 4.254047-4.014944C4.254047-3.845579 4.383562-3.726027 4.542964-3.726027C4.64259-3.726027 4.83188-3.795766 4.83188-4.024907C4.83188-4.194271 4.712329-4.513076 4.323786-4.513076C4.124533-4.513076 3.686177-4.4533 3.267746-4.044832C2.849315-4.373599 2.430884-4.403487 2.211706-4.403487C1.285181-4.403487 .597758-3.716065 .597758-2.948941C.597758-2.510585 .816936-2.132005 1.066002-1.92279C.936488-1.77335 .757161-1.444583 .757161-1.09589C.757161-.787049 .886675-.408468 1.195517-.209215C.597758-.039851 .278954 .388543 .278954 .787049C.278954 1.504359 1.265255 2.052304 2.480697 2.052304C3.656289 2.052304 4.692403 1.544209 4.692403 .767123C4.692403 .418431 4.552927-.089664 4.044832-.368618C3.516812-.647572 2.938979-.647572 2.331258-.647572C2.082192-.647572 1.653798-.647572 1.58406-.657534C1.265255-.697385 1.05604-1.006227 1.05604-1.325031ZM2.49066 1.823163C1.484433 1.823163 .797011 1.315068 .797011 .787049C.797011 .328767 1.175592-.039851 1.613948-.069738H2.201743C3.058531-.069738 4.174346-.069738 4.174346 .787049C4.174346 1.325031 3.466999 1.823163 2.49066 1.823163Z'/>
<path id='g3-108' d='M1.763387-6.914072L.328767-6.804483V-6.495641C1.026152-6.495641 1.105853-6.425903 1.105853-5.937733V-.757161C1.105853-.308842 .996264-.308842 .328767-.308842V0C.657534-.009963 1.185554-.029888 1.43462-.029888S2.171856-.009963 2.540473 0V-.308842C1.872976-.308842 1.763387-.308842 1.763387-.757161V-6.914072Z'/>
<path id='g3-111' d='M4.692403-2.132005C4.692403-3.407223 3.696139-4.463263 2.49066-4.463263C1.24533-4.463263 .278954-3.377335 .278954-2.132005C.278954-.846824 1.315068 .109589 2.480697 .109589C3.686177 .109589 4.692403-.86675 4.692403-2.132005ZM2.49066-.139477C2.062267-.139477 1.62391-.348692 1.354919-.806974C1.105853-1.24533 1.105853-1.853051 1.105853-2.211706C1.105853-2.600249 1.105853-3.138232 1.344956-3.576588C1.613948-4.034869 2.082192-4.244085 2.480697-4.244085C2.919054-4.244085 3.347447-4.024907 3.606476-3.596513S3.865504-2.590286 3.865504-2.211706C3.865504-1.853051 3.865504-1.315068 3.646326-.876712C3.427148-.428394 2.988792-.139477 2.49066-.139477Z'/>
<path id='g2-113' d='M4.503113-4.293898C4.503113-4.333748 4.473225-4.393524 4.403487-4.393524C4.293898-4.393524 3.895392-3.995019 3.726027-3.706102C3.506849-4.244085 3.118306-4.403487 2.799502-4.403487C1.62391-4.403487 .398506-2.929016 .398506-1.484433C.398506-.508095 .986301 .109589 1.713574 .109589C2.141968 .109589 2.530511-.129514 2.889166-.488169C2.799502-.139477 2.470735 1.205479 2.440847 1.295143C2.361146 1.574097 2.281445 1.613948 1.723537 1.62391C1.594022 1.62391 1.494396 1.62391 1.494396 1.823163C1.494396 1.833126 1.494396 1.932752 1.62391 1.932752C1.942715 1.932752 2.291407 1.902864 2.620174 1.902864C2.958904 1.902864 3.317559 1.932752 3.646326 1.932752C3.696139 1.932752 3.825654 1.932752 3.825654 1.733499C3.825654 1.62391 3.726027 1.62391 3.566625 1.62391C3.088418 1.62391 3.088418 1.554172 3.088418 1.464508C3.088418 1.39477 3.108344 1.334994 3.128269 1.24533L4.503113-4.293898ZM1.743462-.109589C1.145704-.109589 1.105853-.876712 1.105853-1.046077C1.105853-1.524284 1.39477-2.610212 1.564134-3.028643C1.872976-3.765878 2.391034-4.184309 2.799502-4.184309C3.447073-4.184309 3.58655-3.377335 3.58655-3.307597C3.58655-3.247821 3.038605-1.066002 3.008717-1.026152C2.859278-.747198 2.30137-.109589 1.743462-.109589Z'/>
</defs>
<g id='page1'>
<use x='191.111457' y='84.682441' xlink:href='#g3-108'/>
<use x='193.878866' y='84.682441' xlink:href='#g3-111'/>
<use x='198.860205' y='84.682441' xlink:href='#g3-103'/>
<use x='203.979887' y='84.682441' xlink:href='#g3-40'/>
<use x='207.854261' y='84.682441' xlink:href='#g3-40'/>
<use x='211.728635' y='84.682441' xlink:href='#g2-113'/>
<use x='216.533536' y='84.682441' xlink:href='#g3-59'/>
<use x='220.961344' y='84.682441' xlink:href='#g2-113'/>
<use x='225.766246' y='84.682441' xlink:href='#g3-41'/>
<use x='229.64062' y='86.176822' xlink:href='#g1-49'/>
<use x='238.081212' y='84.682441' xlink:href='#g3-41'/>
<use x='241.955585' y='84.682441' xlink:href='#g3-40'/>
<use x='245.829959' y='84.682441' xlink:href='#g3-49'/>
<use x='253.025164' y='84.682441' xlink:href='#g0-0'/>
<use x='262.987778' y='84.682441' xlink:href='#g2-113'/>
<use x='267.792679' y='80.568945' xlink:href='#g4-50'/>
<use x='272.262049' y='84.682441' xlink:href='#g3-41'/>
</g>
</svg>
